icons/group_discussion_meetingx3_fill.svg

<svg width="48" height="48" viewBox="0 0 48 48" fill="none" xmlns="http://www.w3.org/2000/svg">
<path d="M18.5 26C18.5 28.21 16.71 30 14.5 30C12.29 30 10.5 28.21 10.5 26C10.5 23.79 12.29 22 14.5 22C16.71 22 18.5 23.79 18.5 26Z" fill="black"/>
<path fill-rule="evenodd" clip-rule="evenodd" d="M14.5 28C15.6054 28 16.5 27.1054 16.5 26C16.5 24.8946 15.6054 24 14.5 24C13.3946 24 12.5 24.8946 12.5 26C12.5 27.1054 13.3946 28 14.5 28ZM14.5 30C16.71 30 18.5 28.21 18.5 26C18.5 23.79 16.71 22 14.5 22C12.29 22 10.5 23.79 10.5 26C10.5 28.21 12.29 30 14.5 30Z" fill="black"/>
<path d="M6 36.5455C6 33.5227 11.6631 32 14.5 32C17.3369 32 23 33.5227 23 36.5455V42H6V36.5455Z" fill="black"/>
<path fill-rule="evenodd" clip-rule="evenodd" d="M8.3342 35.9834C8.01826 36.2952 8 36.4741 8 36.5455V40H21V36.5455C21 36.4741 20.9817 36.2952 20.6658 35.9834C20.3323 35.6542 19.7814 35.3011 19.0262 34.9776C17.5068 34.3266 15.65 34 14.5 34C13.35 34 11.4932 34.3266 9.97382 34.9776C9.21864 35.3011 8.66768 35.6542 8.3342 35.9834ZM14.5 32C11.6631 32 6 33.5227 6 36.5455V42H23V36.5455C23 33.5227 17.3369 32 14.5 32Z" fill="black"/>
<path d="M37.5 26C37.5 28.21 35.71 30 33.5 30C31.29 30 29.5 28.21 29.5 26C29.5 23.79 31.29 22 33.5 22C35.71 22 37.5 23.79 37.5 26Z" fill="black"/>
<path fill-rule="evenodd" clip-rule="evenodd" d="M33.5 28C34.6054 28 35.5 27.1054 35.5 26C35.5 24.8946 34.6054 24 33.5 24C32.3946 24 31.5 24.8946 31.5 26C31.5 27.1054 32.3946 28 33.5 28ZM33.5 30C35.71 30 37.5 28.21 37.5 26C37.5 23.79 35.71 22 33.5 22C31.29 22 29.5 23.79 29.5 26C29.5 28.21 31.29 30 33.5 30Z" fill="black"/>
<path d="M28 24C28 26.21 26.21 28 24 28C21.79 28 20 26.21 20 24C20 21.79 21.79 20 24 20C26.21 20 28 21.79 28 24Z" fill="black"/>
<path fill-rule="evenodd" clip-rule="evenodd" d="M24 26C25.1054 26 26 25.1054 26 24C26 22.8946 25.1054 22 24 22C22.8946 22 22 22.8946 22 24C22 25.1054 22.8946 26 24 26ZM24 28C26.21 28 28 26.21 28 24C28 21.79 26.21 20 24 20C21.79 20 20 21.79 20 24C20 26.21 21.79 28 24 28Z" fill="black"/>
<path d="M23 12.8333C23 10.164 20.836 8 18.1667 8H14.9983C12.2378 8 10 10.2378 10 12.9983C10 15.6881 12.1286 17.8956 14.8167 17.9933L15 18V20C15 20 23 18.8333 23 12.8333Z" fill="black"/>
<path d="M26 11.2361C26 8.34429 28.3443 6 31.2361 6H37C39.7614 6 42 8.23858 42 11C42 13.7614 39.7614 16 37 16H35V19C35 19 26 17.7361 26 11.2361Z" fill="black"/>
<path d="M25 36.5455C25 33.5227 30.6631 32 33.5 32C36.3369 32 42 33.5227 42 36.5455V42H25V36.5455Z" fill="black"/>
<path fill-rule="evenodd" clip-rule="evenodd" d="M27.3342 35.9834C27.0183 36.2952 27 36.4741 27 36.5455V40H40V36.5455C40 36.4741 39.9817 36.2952 39.6658 35.9834C39.3323 35.6542 38.7814 35.3011 38.0262 34.9776C36.5068 34.3266 34.65 34 33.5 34C32.35 34 30.4932 34.3266 28.9738 34.9776C28.2186 35.3011 27.6677 35.6542 27.3342 35.9834ZM33.5 32C30.6631 32 25 33.5227 25 36.5455V42H42V36.5455C42 33.5227 36.3369 32 33.5 32Z" fill="black"/>
<path fill-rule="evenodd" clip-rule="evenodd" d="M24 35H23.9999V34.5455C23.9999 32.8677 22.1526 31.652 19.995 30.9024C21.1033 30.3829 22.4567 30 24 30C25.5433 30 26.8966 30.3829 28.005 30.9024C25.8474 31.652 24 32.8677 24 34.5455V35Z" fill="black"/>
<path fill-rule="evenodd" clip-rule="evenodd" d="M24 35V34.5455C24 33.6516 24.5244 32.8889 25.3406 32.258C25.3866 32.2224 25.4336 32.1872 25.4814 32.1525C26.1777 31.6469 27.0617 31.2301 28.005 30.9024C27.1522 30.5027 26.1543 30.1838 25.0365 30.058C24.7016 30.0204 24.3558 30 24 30C23.6441 30 23.2984 30.0204 22.9634 30.058C21.8456 30.1838 20.8478 30.5027 19.995 30.9024C20.9383 31.2301 21.8223 31.6469 22.5185 32.1525C22.5663 32.1872 22.6133 32.2224 22.6593 32.258C23.4756 32.8889 23.9999 33.6516 23.9999 34.5455V35H24Z" fill="black"/>
</svg>

<svg
  xmlns="http://www.w3.org/2000/svg"
  width="24"
  height="24"
  viewBox="0 0 24 24"
  fill="none"
  stroke="currentColor"
  stroke-width="2"
  stroke-linecap="round"
  stroke-linejoin="round"
>
  <path d="M18.5 26c0 2.21-1.79 4-4 4s-4-1.79-4-4 1.79-4 4-4 4 1.79 4 4" />
  <path
    fill-rule="evenodd"
    d="M14.5 28a1.999 1.999 0 1 0 0-4 1.999 1.999 0 1 0 0 4m0 2c2.21 0 4-1.79 4-4s-1.79-4-4-4-4 1.79-4 4 1.79 4 4 4"
    clip-rule="evenodd"
  />
  <path d="M6 36.546C6 33.522 11.663 32 14.5 32s8.5 1.523 8.5 4.545V42H6z" />
  <path
    fill-rule="evenodd"
    d="M8.334 35.983c-.316.312-.334.491-.334.563V40h13v-3.455c0-.07-.018-.25-.334-.562-.334-.329-.885-.682-1.64-1.005C17.506 34.327 15.65 34 14.5 34s-3.007.327-4.526.978c-.755.323-1.306.676-1.64 1.005M14.5 32C11.663 32 6 33.523 6 36.545V42h17v-5.455C23 33.524 17.337 32 14.5 32"
    clip-rule="evenodd"
  />
  <path d="M37.5 26c0 2.21-1.79 4-4 4s-4-1.79-4-4 1.79-4 4-4 4 1.79 4 4" />
  <path
    fill-rule="evenodd"
    d="M33.5 28a1.999 1.999 0 1 0 0-4 1.999 1.999 0 1 0 0 4m0 2c2.21 0 4-1.79 4-4s-1.79-4-4-4-4 1.79-4 4 1.79 4 4 4"
    clip-rule="evenodd"
  />
  <path d="M28 24c0 2.21-1.79 4-4 4s-4-1.79-4-4 1.79-4 4-4 4 1.79 4 4" />
  <path
    fill-rule="evenodd"
    d="M24 26a1.999 1.999 0 1 0 0-4 1.999 1.999 0 1 0 0 4m0 2c2.21 0 4-1.79 4-4s-1.79-4-4-4-4 1.79-4 4 1.79 4 4 4"
    clip-rule="evenodd"
  />
  <path d="M23 12.833A4.833 4.833 0 0 0 18.167 8h-3.169a4.998 4.998 0 0 0-.181 9.993L15 18v2s8-1.167 8-7.167" />
  <path d="M26 11.236A5.236 5.236 0 0 1 31.236 6H37a5 5 0 0 1 0 10h-2v3s-9-1.264-9-7.764" />
  <path d="M25 36.546C25 33.522 30.663 32 33.5 32s8.5 1.523 8.5 4.545V42H25z" />
  <path
    fill-rule="evenodd"
    d="M27.334 35.983c-.316.312-.334.491-.334.563V40h13v-3.455c0-.07-.018-.25-.334-.562-.334-.329-.885-.682-1.64-1.005C36.506 34.327 34.65 34 33.5 34s-3.007.327-4.526.978c-.755.323-1.306.676-1.64 1.005M33.5 32c-2.837 0-8.5 1.523-8.5 4.545V42h17v-5.455C42 33.524 36.337 32 33.5 32"
    clip-rule="evenodd"
  />
  <path
    fill-rule="evenodd"
    d="M24 35v-.455c0-1.677-1.847-2.893-4.005-3.643A9.4 9.4 0 0 1 24 30a9.4 9.4 0 0 1 4.005.902c-2.158.75-4.005 1.966-4.005 3.643z"
    clip-rule="evenodd"
  />
  <path
    fill-rule="evenodd"
    d="M24 35v-.455c0-.893.524-1.656 1.34-2.287l.141-.105c.697-.506 1.58-.923 2.524-1.25a9.5 9.5 0 0 0-2.968-.845 9.3 9.3 0 0 0-2.074 0 9.5 9.5 0 0 0-2.968.844c.943.328 1.827.745 2.523 1.25q.072.052.141.106c.817.63 1.34 1.394 1.34 2.287z"
    clip-rule="evenodd"
  />
</svg>
